flaticon/office/desk.svg

<svg xmlns="http://www.w3.org/2000/svg" width="32" height="32" viewBox="0 0 24 24">
    <path d="M 23.992188 23.515625 L 22.09375 14.398438 L 22.394531 14.398438 C 22.59375 14.398438 22.753906 14.238281 22.792969 14.078125 L 23.140625 12 L 23.59375 12 C 23.832031 12 23.992188 11.839844 23.992188 11.601562 L 23.992188 10 C 23.992188 9.761719 23.832031 9.601562 23.59375 9.601562 L 18.355469 9.601562 L 18.355469 9.320312 C 18.355469 8.800781 17.953125 8.402344 17.433594 8.402344 L 17.195312 8.402344 L 17.195312 8 L 21.191406 8 C 21.632812 8 21.992188 7.640625 21.992188 7.203125 L 21.992188 0.804688 C 21.992188 0.363281 21.632812 0.00390625 21.191406 0.00390625 L 10.796875 0.00390625 C 10.355469 0.00390625 9.996094 0.363281 9.996094 0.804688 L 9.996094 7.203125 C 9.996094 7.640625 10.355469 8 10.796875 8 L 14.796875 8 L 14.796875 8.402344 L 14.515625 8.402344 C 13.996094 8.402344 13.59375 8.800781 13.59375 9.320312 L 13.59375 9.601562 L 7.199219 9.601562 L 7.199219 8.800781 L 7.597656 8.800781 C 7.835938 8.800781 7.996094 8.640625 7.996094 8.402344 L 7.996094 6.800781 C 7.996094 6.5625 7.835938 6.402344 7.597656 6.402344 L 7.199219 6.402344 L 7.199219 5.203125 C 7.199219 4.960938 7.039062 4.800781 6.796875 4.800781 L 1.597656 4.800781 C 1.359375 4.800781 1.199219 4.960938 1.199219 5.203125 L 1.199219 6.800781 C 1.199219 7.042969 1.359375 7.203125 1.597656 7.203125 L 2 7.203125 L 2 8 L 1.597656 8 C 1.359375 8 1.199219 8.160156 1.199219 8.402344 L 1.199219 9.601562 L 0.398438 9.601562 C 0.160156 9.601562 0 9.761719 0 10 L 0 11.601562 C 0 11.839844 0.160156 12 0.398438 12 L 0.800781 12 L 0.800781 23.597656 C 0.800781 23.835938 0.960938 23.996094 1.199219 23.996094 L 8.398438 23.996094 C 8.636719 23.996094 8.796875 23.835938 8.796875 23.597656 L 8.796875 12 L 20.046875 12 L 20.394531 14.078125 C 20.433594 14.238281 20.59375 14.398438 20.792969 14.398438 L 21.09375 14.398438 L 19.195312 23.515625 C 19.152344 23.757812 19.3125 23.957031 19.515625 23.996094 C 19.554688 23.996094 19.554688 23.996094 19.59375 23.996094 C 19.792969 23.996094 19.953125 23.875 19.992188 23.675781 L 21.59375 16 L 23.191406 23.675781 C 23.234375 23.875 23.394531 23.996094 23.59375 23.996094 C 23.632812 23.996094 23.632812 23.996094 23.671875 23.996094 C 23.914062 23.957031 24.03125 23.714844 23.992188 23.515625 Z M 21.191406 0.804688 L 21.191406 5.601562 L 10.796875 5.601562 L 10.796875 0.804688 Z M 10.796875 6.402344 L 21.191406 6.402344 L 21.191406 7.203125 L 10.796875 7.203125 Z M 15.59375 8 L 16.394531 8 L 16.394531 8.402344 L 15.59375 8.402344 Z M 14.433594 9.320312 C 14.433594 9.242188 14.476562 9.199219 14.554688 9.199219 L 17.472656 9.199219 C 17.554688 9.199219 17.59375 9.242188 17.59375 9.320312 L 17.59375 9.601562 L 14.433594 9.601562 Z M 2 5.601562 L 6.398438 5.601562 L 6.398438 6.402344 L 2 6.402344 Z M 2.800781 7.203125 L 7.199219 7.203125 L 7.199219 8 L 2.800781 8 Z M 2 8.800781 L 6.398438 8.800781 L 6.398438 9.601562 L 2 9.601562 Z M 0.800781 10.402344 L 23.191406 10.402344 L 23.191406 11.199219 L 0.800781 11.199219 Z M 7.996094 19.199219 L 1.597656 19.199219 L 1.597656 16 L 7.996094 16 Z M 7.996094 23.195312 L 1.597656 23.195312 L 1.597656 19.996094 L 7.996094 19.996094 Z M 7.996094 15.199219 L 1.597656 15.199219 L 1.597656 12 L 7.996094 12 Z M 22.3125 12 L 22.03125 13.597656 L 21.671875 13.597656 C 21.667969 13.597656 21.664062 13.597656 21.660156 13.597656 C 21.613281 13.589844 21.5625 13.589844 21.511719 13.597656 L 21.113281 13.597656 L 20.875 12 Z M 22.3125 12"/>
    <path d="M4.398438 14L5.199219 14C5.4375 14 5.597656 13.839844 5.597656 13.597656 5.597656 13.359375 5.4375 13.199219 5.199219 13.199219L4.398438 13.199219C4.160156 13.199219 4 13.359375 4 13.597656 4 13.839844 4.160156 14 4.398438 14zM4.398438 18L5.199219 18C5.4375 18 5.597656 17.839844 5.597656 17.597656 5.597656 17.359375 5.4375 17.199219 5.199219 17.199219L4.398438 17.199219C4.160156 17.199219 4 17.359375 4 17.597656 4 17.839844 4.160156 18 4.398438 18zM4.398438 21.996094L5.199219 21.996094C5.4375 21.996094 5.597656 21.835938 5.597656 21.597656 5.597656 21.355469 5.4375 21.195312 5.199219 21.195312L4.398438 21.195312C4.160156 21.195312 4 21.355469 4 21.597656 4 21.835938 4.160156 21.996094 4.398438 21.996094zM11.597656 2.804688C11.714844 2.804688 11.796875 2.761719 11.875 2.683594L12.675781 1.882812C12.835938 1.722656 12.835938 1.484375 12.675781 1.324219 12.515625 1.164062 12.277344 1.164062 12.117188 1.324219L11.316406 2.125C11.15625 2.28125 11.15625 2.523438 11.316406 2.683594 11.394531 2.761719 11.476562 2.804688 11.597656 2.804688zM11.714844 4.28125C11.796875 4.363281 11.875 4.402344 11.996094 4.402344 12.117188 4.402344 12.195312 4.363281 12.277344 4.28125L14.277344 2.28125C14.433594 2.125 14.433594 1.882812 14.277344 1.722656 14.117188 1.5625 13.875 1.5625 13.714844 1.722656L11.714844 3.722656C11.554688 3.882812 11.554688 4.121094 11.714844 4.28125zM11.714844 4.28125"/>
</svg>

<svg xmlns="http://www.w3.org/2000/svg" width="32" height="32" viewBox="0 0 24 24">
    <path d="M23.992 23.516l-1.898-9.118h.3c.2 0 .36-.16.399-.32L23.141 12h.453c.238 0 .398-.16.398-.398V10c0-.238-.16-.398-.398-.398h-5.239V9.32a.906.906 0 0 0-.921-.918h-.239V8h3.996c.442 0 .801-.36.801-.797V.805c0-.442-.36-.801-.8-.801H10.796c-.442 0-.8.36-.8.8v6.4c0 .437.358.796.8.796h4v.402h-.281a.906.906 0 0 0-.922.918v.282H7.199V8.8h.399c.238 0 .398-.16.398-.399V6.801c0-.239-.16-.399-.398-.399h-.399V5.203c0-.242-.16-.402-.402-.402h-5.2c-.238 0-.398.16-.398.402v1.598c0 .242.16.402.399.402H2V8h-.402c-.239 0-.399.16-.399.402v1.2H.4C.16 9.602 0 9.762 0 10v1.602c0 .238.16.398.398.398h.403v11.598c0 .238.16.398.398.398h7.2c.238 0 .398-.16.398-.398V12h11.25l.348 2.078c.039.16.199.32.398.32h.3l-1.898 9.118a.41.41 0 0 0 .32.48h.079c.199 0 .36-.121.398-.32L21.594 16l1.597 7.676c.043.199.204.32.403.32h.078c.242-.039.36-.281.32-.48zM21.192.805v4.797H10.796V.805zM10.796 6.402H21.19v.801H10.797zM15.594 8h.8v.402h-.8zm-1.16 1.32c0-.078.043-.12.12-.12h2.919c.082 0 .12.042.12.12v.282h-3.16zM2 5.602h4.398v.8H2zm.8 1.601h4.4V8H2.8zM2 8.801h4.398v.8H2zM.8 10.402h22.391v.797H.801zM7.997 19.2H1.598V16h6.398zm0 3.996H1.598v-3.199h6.398zm0-7.996H1.598V12h6.398zM22.313 12l-.282 1.598h-.37a.473.473 0 0 0-.15 0h-.398L20.875 12zm0 0"/>
    <path d="M4.398 14H5.2c.239 0 .399-.16.399-.402 0-.239-.16-.399-.399-.399h-.8c-.239 0-.399.16-.399.399 0 .242.16.402.398.402zm0 0M4.398 18H5.2c.239 0 .399-.16.399-.402 0-.239-.16-.399-.399-.399h-.8c-.239 0-.399.16-.399.399 0 .242.16.402.398.402zm0 0M4.398 21.996H5.2c.239 0 .399-.16.399-.398 0-.243-.16-.403-.399-.403h-.8c-.239 0-.399.16-.399.403 0 .238.16.398.398.398zm0 0M11.598 2.805c.117 0 .199-.043.277-.121l.8-.801a.385.385 0 0 0 0-.559.385.385 0 0 0-.558 0l-.8.801a.385.385 0 0 0 0 .559c.078.078.16.12.28.12zm0 0M11.715 4.281c.082.082.16.121.281.121.121 0 .2-.039.281-.12l2-2a.391.391 0 0 0 0-.56.39.39 0 0 0-.562 0l-2 2a.385.385 0 0 0 0 .56zm0 0"/>
</svg>
